assets/img/torus-login/google-grey.svg

<svg data-v-0f5b03b5="" viewBox="0 0 26 27" fill="none" xmlns="http://www.w3.org/2000/svg" aria-hidden="true" class="v-icon notranslate v-icon--is-component theme--light loginBtnGray--text"><path fill-rule="evenodd" clip-rule="evenodd" d="M18.2285 7.21698C16.8618 5.91025 15.1235 5.2449 13.1874 5.2449C9.75271 5.2449 6.84554 7.56464 5.80854 10.6816L5.80835 10.6815V10.6815C5.5446 11.4728 5.39475 12.3179 5.39475 13.1871C5.39475 14.0562 5.5446 14.9014 5.80833 15.6926H5.80854C6.84553 18.8095 9.75271 21.1293 13.1874 21.1293C14.9616 21.1293 16.4722 20.6617 17.653 19.8705L17.6536 19.871C19.0503 18.9359 19.9793 17.5393 20.285 15.8909H13.1879V10.7899H25.6078C25.7637 11.653 25.8476 12.5522 25.8476 13.4873C25.8476 17.5034 24.409 20.8841 21.9154 23.1798H21.9143C19.7325 25.1935 16.7476 26.3742 13.1874 26.3742C8.03238 26.3742 3.57272 23.4191 1.40283 19.1092L1.40263 19.1093C0.509504 17.3291 0 15.315 0 13.1871C0 11.0592 0.509504 9.04511 1.40263 7.26485H1.40287C3.57278 2.95509 8.03241 0 13.1874 0C16.7419 0 19.727 1.30673 22.0108 3.43466L18.2285 7.21698Z" fill="currentColor"/></svg>

<svg viewBox="0 0 26 27" fill="none" xmlns="http://www.w3.org/2000/svg" aria-hidden="true" class="v-icon notranslate v-icon--is-component theme--light loginBtnGray--text"><path fill-rule="evenodd" clip-rule="evenodd" d="M18.229 7.217c-1.367-1.307-3.105-1.972-5.042-1.972-3.434 0-6.341 2.32-7.378 5.437a7.927 7.927 0 0 0-.414 2.505c0 .87.15 1.714.413 2.506 1.038 3.117 3.945 5.436 7.38 5.436 1.774 0 3.284-.467 4.465-1.259v.001a6.066 6.066 0 0 0 2.632-3.98h-7.097V10.79h12.42c.156.863.24 1.762.24 2.697 0 4.016-1.439 7.397-3.933 9.693-2.182 2.014-5.167 3.194-8.728 3.194-5.155 0-9.614-2.955-11.784-7.265A13.182 13.182 0 0 1 0 13.187c0-2.128.51-4.142 1.403-5.922C3.573 2.955 8.033 0 13.187 0c3.555 0 6.54 1.307 8.824 3.435l-3.782 3.782Z" fill="currentColor"/></svg>
